X: 20
T: Cotillon XX.     l' Amiti\'e.
%R: march, reel
B: J. Longman "XXIV New Cotillons or French Dances", London 1770 #20
F: http://http://www.vwml.org/browse/browse-collections-dance-tune-books/browse-longmans 2015-2-22
Z: 2015 John Chambers <jc:trillian.mit.edu>
M: C
L: 1/8
K: D
% - - - - - - - - - - - - - - - - - - - - - - - - - - - - -
%Voice 1 is formatted for a small scale.
V: 1 clef=treble
defg | a2A2 b2c2 | d4 (dcBA) | (dcBA) (Bd)(ce) | d2D2 defg | a2A2 B2c2 | d4 b4 |
(^ge)(ad) c2TB2 | A4 :||: (Ac)(ec) | (Ad)(fd) g2g2 | g2f2 bagf | gfed (ed)(cd) | B3c defg | a2A2 B2c2 |
d4 (AF)(ED) | B2B2 (AF)(ED) | B3c defg | a2A2 B2c2 | d3e (fd)(ge) | (af)(bg) f2Te2 | d4 :|
% - - - - - - - - - - - - - - - - - - - - - - - - - - - - -
%Voice 2 preserves the original staff breaks.
V: 2 clef=bass middle=d
z4 | z2a2 b2c'2 | d'4 f4 | d4 g2a2 | d4 z4 | z2a2 b2c'2 | d'4 zbc'd' |
e'2c'd' e'2e2 | a4 :||: a4 | A4 a4 | d4 B4 | d4 e2f2 | B4 z4 | z2a2 b2c'2 |
d'4 f4 | g4 f4 | g4 z4 | z2a2 b2c'2 | d'2a2 d2e2 | f2g2 a2A2 | d4 :|
% - - - - - - - - - - Dance description - - - - - - - - - -
%%begintext align
%%    All round: the first Couple lead up, a Rigadoon Step, the Gentleman leads the Lady
%% by a half round and comes facing the Second Couple and claps hands five times, the
%% Lady leads the Gentleman to his Place and turns under his Arm: the Second Couple
%% do the same.
%%endtext
%%text See the title page for the set of 9 "changes" for this dance.

%%sep 1 1 500
%%sep 1 1 500
